icons/4_Outdated/Bitpanda v1.svg

<svg width="1024" height="1024" viewBox="0 0 1024 1024" fill="none" xmlns="http://www.w3.org/2000/svg">
<g clip-path="url(#clip0_3_488)">
<path d="M512 1024C794.77 1024 1024 794.77 1024 512C1024 229.23 794.77 0 512 0C229.23 0 0 229.23 0 512C0 794.77 229.23 1024 512 1024Z" fill="#56595B"/>
<path d="M424.4 468.898C448.4 468.898 464.4 485.098 464.4 510.298C464.4 535.498 448.4 551.698 424.4 551.698C414.4 551.698 405.7 547.798 400.7 542.298V584.698L383 595.098V469.898H400.7V478.298C405.9 473.298 413.8 468.898 424.4 468.898ZM210.2 428.998V478.198C215.2 472.698 223.9 468.798 233.9 468.798C257.9 468.798 273.9 484.998 273.9 510.198C273.9 535.398 257.9 551.598 233.9 551.598C223.3 551.598 215.4 547.198 210.2 542.198V550.598H192.5V439.198L210.2 428.998ZM346.9 428.898V469.898H365V486.998H346.9V515.498C346.9 525.398 355.1 533.598 365 533.598V551.698C345.2 551.698 328.9 535.498 328.9 515.498V439.198L346.9 428.898ZM514.7 468.898C525.3 468.898 534.4 473.898 537.8 478.298V469.898H555.9V550.798H537.8V542.398C534.4 546.798 525.5 551.798 514.7 551.798C491.6 551.798 474.2 534.698 474.2 510.398C474.2 485.998 491.7 468.898 514.7 468.898ZM737.7 428.998V550.698H720V542.298C714.8 547.298 706.9 551.698 696.3 551.698C672.3 551.698 656.3 535.498 656.3 510.298C656.3 485.098 672.3 468.898 696.3 468.898C706.3 468.898 715 472.798 720 478.298V439.198L737.7 428.998ZM790.5 468.898C801.1 468.898 810.2 473.898 813.6 478.298V469.898H831.7V550.798H813.6V542.398C810.2 546.798 801.3 551.798 790.5 551.798C767.4 551.798 750 534.698 750 510.398C750 485.998 767.4 468.898 790.5 468.898ZM306.7 469.898V550.798H289V469.898H306.7ZM614.4 468.898C634.4 468.898 645.4 480.698 645.4 502.198V550.698H627.7V506.098C627.7 491.898 621.7 485.698 610.1 485.698C598.5 485.698 592.4 494.098 592.4 506.098V550.698H574.7V469.798H592.4V478.998C596 474.198 603.3 468.898 614.4 468.898ZM233.1 485.998C219.1 485.998 209.9 496.298 209.9 510.298C209.9 524.198 219.1 534.598 233.1 534.598C247.1 534.598 256.5 524.298 256.5 510.298C256.4 496.398 247.1 485.998 233.1 485.998ZM423.6 485.998C409.6 485.998 400.4 496.298 400.4 510.298C400.4 524.198 409.6 534.598 423.6 534.598C437.6 534.598 447 524.298 447 510.298C447 496.398 437.6 485.998 423.6 485.998ZM515.4 485.998C502 485.998 491.7 496.998 491.7 510.298C491.7 523.598 502 534.598 515.4 534.598C528.5 534.598 538.5 523.598 538.5 510.298C538.4 496.998 528.4 485.998 515.4 485.998ZM697 485.998C683 485.998 673.6 496.298 673.6 510.298C673.6 524.198 683 534.598 697 534.598C711 534.598 720.2 524.298 720.2 510.298C720.2 496.398 711 485.998 697 485.998ZM791.1 485.998C777.7 485.998 767.4 496.998 767.4 510.298C767.4 523.598 777.7 534.598 791.1 534.598C804.2 534.598 814.2 523.598 814.2 510.298C814.2 496.998 804.2 485.998 791.1 485.998ZM297.9 436.598C304.5 436.598 309.8 441.898 309.8 448.698C309.8 455.498 304.5 460.798 297.9 460.798C291.3 460.798 286 455.498 286 448.698C285.9 441.898 291.3 436.598 297.9 436.598Z" fill="white"/>
</g>
<defs>
<clipPath id="clip0_3_488">
<rect width="1024" height="1024" fill="white"/>
</clipPath>
</defs>
</svg>

<svg xmlns="http://www.w3.org/2000/svg" width="1024" height="1024" fill="none">
   <g clip-path="url(#a)">
      <path fill="#56595B" d="M512 1024c282.77 0 512-229.23 512-512S794.77 0 512 0 0 229.23 0 512s229.23 512 512 512Z"/>
      <path fill="#fff" d="M424.4 468.898c24 0 40 16.2 40 41.4s-16 41.4-40 41.4c-10 0-18.7-3.9-23.7-9.4v42.4l-17.7 10.4v-125.2h17.7v8.4c5.2-5 13.1-9.4 23.7-9.4Zm-214.2-39.9v49.2c5-5.5 13.7-9.4 23.7-9.4 24 0 40 16.2 40 41.4s-16 41.4-40 41.4c-10.6 0-18.5-4.4-23.7-9.4v8.4h-17.7v-111.4l17.7-10.2Zm136.7-.1v41H365v17.1h-18.1v28.5c0 9.9 8.2 18.1 18.1 18.1v18.1c-19.8 0-36.1-16.2-36.1-36.2v-76.3l18-10.3Zm167.8 40c10.6 0 19.7 5 23.1 9.4v-8.4h18.1v80.9h-18.1v-8.4c-3.4 4.4-12.3 9.4-23.1 9.4-23.1 0-40.5-17.1-40.5-41.4 0-24.4 17.5-41.5 40.5-41.5Zm223-39.9v121.7H720v-8.4c-5.2 5-13.1 9.4-23.7 9.4-24 0-40-16.2-40-41.4s16-41.4 40-41.4c10 0 18.7 3.9 23.7 9.4v-39.1l17.7-10.2Zm52.8 39.9c10.6 0 19.7 5 23.1 9.4v-8.4h18.1v80.9h-18.1v-8.4c-3.4 4.4-12.3 9.4-23.1 9.4-23.1 0-40.5-17.1-40.5-41.4 0-24.4 17.4-41.5 40.5-41.5Zm-483.8 1v80.9H289v-80.9h17.7Zm307.7-1c20 0 31 11.8 31 33.3v48.5h-17.7v-44.6c0-14.2-6-20.4-17.6-20.4-11.6 0-17.7 8.4-17.7 20.4v44.6h-17.7v-80.9h17.7v9.2c3.6-4.8 10.9-10.1 22-10.1Zm-381.3 17.1c-14 0-23.2 10.3-23.2 24.3 0 13.9 9.2 24.3 23.2 24.3s23.4-10.3 23.4-24.3c-.1-13.9-9.4-24.3-23.4-24.3Zm190.5 0c-14 0-23.2 10.3-23.2 24.3 0 13.9 9.2 24.3 23.2 24.3s23.4-10.3 23.4-24.3c0-13.9-9.4-24.3-23.4-24.3Zm91.8 0c-13.4 0-23.7 11-23.7 24.3s10.3 24.3 23.7 24.3c13.1 0 23.1-11 23.1-24.3-.1-13.3-10.1-24.3-23.1-24.3Zm181.6 0c-14 0-23.4 10.3-23.4 24.3 0 13.9 9.4 24.3 23.4 24.3 14 0 23.2-10.3 23.2-24.3 0-13.9-9.2-24.3-23.2-24.3Zm94.1 0c-13.4 0-23.7 11-23.7 24.3s10.3 24.3 23.7 24.3c13.1 0 23.1-11 23.1-24.3s-10-24.3-23.1-24.3Zm-493.2-49.4c6.6 0 11.9 5.3 11.9 12.1s-5.3 12.1-11.9 12.1c-6.6 0-11.9-5.3-11.9-12.1-.1-6.8 5.3-12.1 11.9-12.1Z"/>
   </g>
   <defs>
      <clipPath id="a">
         <path fill="#fff" d="M0 0h1024v1024H0z"/>
      </clipPath>
   </defs>
</svg>
